public/assets/icons/ic_info.svg

<svg width="28" height="28" viewBox="0 0 28 28" fill="none" xmlns="http://www.w3.org/2000/svg">
<path d="M14 27.5C21.4566 27.5 27.5 21.4566 27.5 14C27.5 6.54336 21.4566 0.5 14 0.5C6.54336 0.5 0.5 6.54336 0.5 14C0.5 21.4566 6.54336 27.5 14 27.5ZM11.8906 18.2188H13.1562V14.8438H11.8906C11.1893 14.8438 10.625 14.2795 10.625 13.5781C10.625 12.8768 11.1893 12.3125 11.8906 12.3125H14.4219C15.1232 12.3125 15.6875 12.8768 15.6875 13.5781V18.2188H16.1094C16.8107 18.2188 17.375 18.783 17.375 19.4844C17.375 20.1857 16.8107 20.75 16.1094 20.75H11.8906C11.1893 20.75 10.625 20.1857 10.625 19.4844C10.625 18.783 11.1893 18.2188 11.8906 18.2188ZM14 10.625C13.0666 10.625 12.3125 9.8709 12.3125 8.9375C12.3125 8.0041 13.0666 7.25 14 7.25C14.9334 7.25 15.6875 8.0041 15.6875 8.9375C15.6875 9.8709 14.9334 10.625 14 10.625Z" fill="#D8D8D8"/>
</svg>

<svg xmlns="http://www.w3.org/2000/svg" width="28" height="28" fill="none"><path fill="#D8D8D8" d="M14 27.5a13.5 13.5 0 1 0 0-27 13.5 13.5 0 0 0 0 27Zm-2.1-9.28h1.26v-3.38h-1.27a1.26 1.26 0 1 1 0-2.53h2.53c.7 0 1.27.57 1.27 1.27v4.64h.42a1.26 1.26 0 1 1 0 2.53h-4.22a1.26 1.26 0 1 1 0-2.53Zm2.1-7.6a1.69 1.69 0 1 1 0-3.37 1.69 1.69 0 0 1 0 3.38Z"/></svg>
